X:1
T:Mae'r Ddaear yn Glasu (Carol Mai)
M:2/4
L:1/8
Q:1/8=150
C:Tradd
K:Am
A|ee2e|dd2d|c2ec|BB2A|
c2de|ed2c|AA2c|B3A|cc2B|
Ad2e|gg2e|fe2e|fe2c|
ec2A|c(A3|A3)z|
